images/50164362.svg

<?xml version="1.0" encoding="UTF-8"?>
<svg xmlns="http://www.w3.org/2000/svg" xmlns:xlink="http://www.w3.org/1999/xlink" width="300pt" height="300pt" viewBox="0 0 300 300" version="1.1">
<defs>
<g>
<symbol overflow="visible" id="glyph0-0">
<path style="stroke:none;" d="M 0.453125 1.59375 L 0.453125 -6.34375 L 4.953125 -6.34375 L 4.953125 1.59375 Z M 0.953125 1.09375 L 4.453125 1.09375 L 4.453125 -5.84375 L 0.953125 -5.84375 Z M 0.953125 1.09375 "/>
</symbol>
<symbol overflow="visible" id="glyph0-1">
<path style="stroke:none;" d="M 0.890625 -6.5625 L 4.65625 -6.5625 L 4.65625 -5.8125 L 1.765625 -5.8125 L 1.765625 -3.875 L 4.375 -3.875 L 4.375 -3.140625 L 1.765625 -3.140625 L 1.765625 0 L 0.890625 0 Z M 0.890625 -6.5625 "/>
</symbol>
<symbol overflow="visible" id="glyph0-2">
<path style="stroke:none;" d="M 0.890625 -6.5625 L 2.078125 -6.5625 L 4.984375 -1.078125 L 4.984375 -6.5625 L 5.84375 -6.5625 L 5.84375 0 L 4.65625 0 L 1.75 -5.484375 L 1.75 0 L 0.890625 0 Z M 0.890625 -6.5625 "/>
</symbol>
<symbol overflow="visible" id="glyph0-3">
<path style="stroke:none;" d="M 0.890625 -6.5625 L 1.765625 -6.5625 L 1.765625 -3.875 L 5 -3.875 L 5 -6.5625 L 5.890625 -6.5625 L 5.890625 0 L 5 0 L 5 -3.125 L 1.765625 -3.125 L 1.765625 0 L 0.890625 0 Z M 0.890625 -6.5625 "/>
</symbol>
<symbol overflow="visible" id="glyph0-4">
<path style="stroke:none;" d="M 3.546875 -5.953125 C 2.898438 -5.953125 2.382812 -5.710938 2 -5.234375 C 1.625 -4.753906 1.4375 -4.101562 1.4375 -3.28125 C 1.4375 -2.445312 1.625 -1.789062 2 -1.3125 C 2.382812 -0.832031 2.898438 -0.59375 3.546875 -0.59375 C 4.191406 -0.59375 4.703125 -0.832031 5.078125 -1.3125 C 5.453125 -1.789062 5.640625 -2.445312 5.640625 -3.28125 C 5.640625 -4.101562 5.453125 -4.753906 5.078125 -5.234375 C 4.703125 -5.710938 4.191406 -5.953125 3.546875 -5.953125 Z M 3.546875 -6.6875 C 4.460938 -6.6875 5.195312 -6.375 5.75 -5.75 C 6.300781 -5.132812 6.578125 -4.3125 6.578125 -3.28125 C 6.578125 -2.238281 6.300781 -1.410156 5.75 -0.796875 C 5.195312 -0.179688 4.460938 0.125 3.546875 0.125 C 2.617188 0.125 1.878906 -0.179688 1.328125 -0.796875 C 0.773438 -1.410156 0.5 -2.238281 0.5 -3.28125 C 0.5 -4.3125 0.773438 -5.132812 1.328125 -5.75 C 1.878906 -6.375 2.617188 -6.6875 3.546875 -6.6875 Z M 3.546875 -6.6875 "/>
</symbol>
<symbol overflow="visible" id="glyph1-0">
<path style="stroke:none;" d="M 0.40625 1.421875 L 0.40625 -5.640625 L 4.40625 -5.640625 L 4.40625 1.421875 Z M 0.84375 0.96875 L 3.953125 0.96875 L 3.953125 -5.1875 L 0.84375 -5.1875 Z M 0.84375 0.96875 "/>
</symbol>
<symbol overflow="visible" id="glyph1-1">
<path style="stroke:none;" d="M 0.390625 -2.515625 L 2.5 -2.515625 L 2.5 -1.875 L 0.390625 -1.875 Z M 0.390625 -2.515625 "/>
</symbol>
</g>
</defs>
<g id="surface21789">
<rect x="0" y="0" width="300" height="300" style="fill:rgb(100%,100%,100%);fill-opacity:1;stroke:none;"/>
<path style="fill:none;stroke-width:1.2;stroke-linecap:butt;stroke-linejoin:miter;stroke:rgb(20%,80%,80%);stroke-opacity:1;stroke-miterlimit:10;" d="M 35.25 174.8125 L 45.6875 168.265625 "/>
<path style="fill:none;stroke-width:1.2;stroke-linecap:butt;stroke-linejoin:miter;stroke:rgb(0%,0%,0%);stroke-opacity:1;stroke-miterlimit:10;" d="M 45.6875 168.265625 L 56.125 161.71875 "/>
<path style=" stroke:none;fill-rule:nonzero;fill:rgb(100%,100%,100%);fill-opacity:1;" d="M 29.25 169.3125 L 35.25 169.3125 L 35.25 180.3125 L 29.25 180.3125 Z M 29.25 169.3125 "/>
<g style="fill:rgb(20%,80%,80%);fill-opacity:1;">
  <use xlink:href="#glyph0-1" x="29.25" y="177.975586"/>
</g>
<path style="fill:none;stroke-width:1.2;stroke-linecap:butt;stroke-linejoin:miter;stroke:rgb(0%,0%,0%);stroke-opacity:1;stroke-miterlimit:10;" d="M 56.125 161.71875 L 49.578125 151.28125 "/>
<path style="fill:none;stroke-width:1.2;stroke-linecap:butt;stroke-linejoin:miter;stroke:rgb(20%,80%,80%);stroke-opacity:1;stroke-miterlimit:10;" d="M 49.578125 151.28125 L 43.03125 140.847656 "/>
<path style="fill:none;stroke-width:1.2;stroke-linecap:butt;stroke-linejoin:miter;stroke:rgb(0%,0%,0%);stroke-opacity:1;stroke-miterlimit:10;" d="M 56.125 161.71875 L 62.667969 172.15625 "/>
<path style="fill:none;stroke-width:1.2;stroke-linecap:butt;stroke-linejoin:miter;stroke:rgb(20%,80%,80%);stroke-opacity:1;stroke-miterlimit:10;" d="M 62.667969 172.15625 L 69.214844 182.59375 "/>
<path style="fill:none;stroke-width:1.2;stroke-linecap:butt;stroke-linejoin:miter;stroke:rgb(0%,0%,0%);stroke-opacity:1;stroke-miterlimit:10;" d="M 56.125 161.71875 L 76.996094 148.628906 "/>
<path style=" stroke:none;fill-rule:nonzero;fill:rgb(100%,100%,100%);fill-opacity:1;" d="M 37.03125 135.347656 L 43.03125 135.347656 L 43.03125 146.347656 L 37.03125 146.347656 Z M 37.03125 135.347656 "/>
<g style="fill:rgb(20%,80%,80%);fill-opacity:1;">
  <use xlink:href="#glyph0-1" x="37.03125" y="144.010742"/>
</g>
<path style=" stroke:none;fill-rule:nonzero;fill:rgb(100%,100%,100%);fill-opacity:1;" d="M 66.214844 177.09375 L 72.214844 177.09375 L 72.214844 188.09375 L 66.214844 188.09375 Z M 66.214844 177.09375 "/>
<g style="fill:rgb(20%,80%,80%);fill-opacity:1;">
  <use xlink:href="#glyph0-1" x="66.214844" y="185.756836"/>
</g>
<path style="fill:none;stroke-width:1.2;stroke-linecap:butt;stroke-linejoin:miter;stroke:rgb(0%,0%,0%);stroke-opacity:1;stroke-miterlimit:10;" d="M 76.996094 148.628906 L 76.097656 124.003906 "/>
<path style="fill:none;stroke-width:1.2;stroke-linecap:butt;stroke-linejoin:miter;stroke:rgb(0%,0%,0%);stroke-opacity:1;stroke-miterlimit:10;" d="M 82.699219 145.953125 L 81.980469 126.253906 "/>
<path style="fill:none;stroke-width:1.2;stroke-linecap:butt;stroke-linejoin:miter;stroke:rgb(0%,0%,0%);stroke-opacity:1;stroke-miterlimit:10;" d="M 98.773438 160.160156 L 76.996094 148.628906 "/>
<path style="fill:none;stroke-width:1.2;stroke-linecap:butt;stroke-linejoin:miter;stroke:rgb(0%,0%,0%);stroke-opacity:1;stroke-miterlimit:10;" d="M 76.097656 124.003906 L 96.96875 110.914062 "/>
<path style="fill:none;stroke-width:1.2;stroke-linecap:butt;stroke-linejoin:miter;stroke:rgb(0%,0%,0%);stroke-opacity:1;stroke-miterlimit:10;" d="M 96.96875 110.914062 L 118.746094 122.445312 "/>
<path style="fill:none;stroke-width:1.2;stroke-linecap:butt;stroke-linejoin:miter;stroke:rgb(0%,0%,0%);stroke-opacity:1;stroke-miterlimit:10;" d="M 96.433594 117.1875 L 113.855469 126.414062 "/>
<path style="fill:none;stroke-width:1.2;stroke-linecap:butt;stroke-linejoin:miter;stroke:rgb(0%,0%,0%);stroke-opacity:1;stroke-miterlimit:10;" d="M 118.746094 122.445312 L 129.179688 115.898438 "/>
<path style="fill:none;stroke-width:1.2;stroke-linecap:butt;stroke-linejoin:miter;stroke:rgb(0%,0%,100%);stroke-opacity:1;stroke-miterlimit:10;" d="M 129.179688 115.898438 L 139.617188 109.351562 "/>
<path style="fill:none;stroke-width:1.2;stroke-linecap:butt;stroke-linejoin:miter;stroke:rgb(0%,0%,0%);stroke-opacity:1;stroke-miterlimit:10;" d="M 118.746094 122.445312 L 119.644531 147.066406 "/>
<path style="fill:none;stroke-width:1.2;stroke-linecap:butt;stroke-linejoin:miter;stroke:rgb(0%,0%,100%);stroke-opacity:1;stroke-miterlimit:10;" d="M 139.617188 109.351562 L 150.503906 115.117188 "/>
<path style="fill:none;stroke-width:1.2;stroke-linecap:butt;stroke-linejoin:miter;stroke:rgb(0%,0%,0%);stroke-opacity:1;stroke-miterlimit:10;" d="M 150.503906 115.117188 L 161.394531 120.882812 "/>
<path style=" stroke:none;fill-rule:nonzero;fill:rgb(100%,100%,100%);fill-opacity:1;" d="M 132.617188 103.851562 L 146.617188 103.851562 L 146.617188 114.851562 L 132.617188 114.851562 Z M 132.617188 103.851562 "/>
<g style="fill:rgb(0%,0%,100%);fill-opacity:1;">
  <use xlink:href="#glyph0-2" x="132.617188" y="112.514648"/>
  <use xlink:href="#glyph0-3" x="139.594727" y="112.514648"/>
</g>
<path style="fill:none;stroke-width:1.2;stroke-linecap:butt;stroke-linejoin:miter;stroke:rgb(0%,0%,0%);stroke-opacity:1;stroke-miterlimit:10;" d="M 158.496094 120.988281 L 158.945312 133.300781 "/>
<path style="fill:none;stroke-width:1.2;stroke-linecap:butt;stroke-linejoin:miter;stroke:rgb(100%,0%,0%);stroke-opacity:1;stroke-miterlimit:10;" d="M 158.945312 133.300781 L 159.398438 145.613281 "/>
<path style="fill:none;stroke-width:1.2;stroke-linecap:butt;stroke-linejoin:miter;stroke:rgb(0%,0%,0%);stroke-opacity:1;stroke-miterlimit:10;" d="M 164.289062 120.777344 L 164.742188 133.089844 "/>
<path style="fill:none;stroke-width:1.2;stroke-linecap:butt;stroke-linejoin:miter;stroke:rgb(100%,0%,0%);stroke-opacity:1;stroke-miterlimit:10;" d="M 164.742188 133.089844 L 165.191406 145.398438 "/>
<path style="fill:none;stroke-width:1.2;stroke-linecap:butt;stroke-linejoin:miter;stroke:rgb(0%,0%,0%);stroke-opacity:1;stroke-miterlimit:10;" d="M 161.394531 120.882812 L 171.828125 114.335938 "/>
<path style="fill:none;stroke-width:1.2;stroke-linecap:butt;stroke-linejoin:miter;stroke:rgb(0%,0%,100%);stroke-opacity:1;stroke-miterlimit:10;" d="M 171.828125 114.335938 L 182.265625 107.789062 "/>
<path style=" stroke:none;fill-rule:nonzero;fill:rgb(100%,100%,100%);fill-opacity:1;" d="M 158.292969 140.003906 L 166.292969 140.003906 L 166.292969 151.003906 L 158.292969 151.003906 Z M 158.292969 140.003906 "/>
<g style="fill:rgb(100%,0%,0%);fill-opacity:1;">
  <use xlink:href="#glyph0-4" x="158.292969" y="148.666992"/>
</g>
<path style="fill:none;stroke-width:1.2;stroke-linecap:butt;stroke-linejoin:miter;stroke:rgb(0%,0%,100%);stroke-opacity:1;stroke-miterlimit:10;" d="M 182.265625 107.789062 L 193.152344 113.554688 "/>
<path style="fill:none;stroke-width:1.2;stroke-linecap:butt;stroke-linejoin:miter;stroke:rgb(0%,0%,0%);stroke-opacity:1;stroke-miterlimit:10;" d="M 193.152344 113.554688 L 204.042969 119.320312 "/>
<path style=" stroke:none;fill-rule:nonzero;fill:rgb(100%,100%,100%);fill-opacity:1;" d="M 177.265625 100.289062 L 187.265625 100.289062 L 187.265625 115.289062 L 177.265625 115.289062 Z M 177.265625 100.289062 "/>
<g style="fill:rgb(0%,0%,100%);fill-opacity:1;">
  <use xlink:href="#glyph0-2" x="177.265625" y="112.390625"/>
</g>
<g style="fill:rgb(0%,0%,100%);fill-opacity:1;">
  <use xlink:href="#glyph1-1" x="184.243164" y="107.507812"/>
</g>
<path style="fill:none;stroke-width:1.2;stroke-linecap:butt;stroke-linejoin:miter;stroke:rgb(0%,0%,0%);stroke-opacity:1;stroke-miterlimit:10;" d="M 204.042969 119.320312 L 215.105469 113.902344 "/>
<path style="fill:none;stroke-width:1.2;stroke-linecap:butt;stroke-linejoin:miter;stroke:rgb(100%,0%,0%);stroke-opacity:1;stroke-miterlimit:10;" d="M 215.105469 113.902344 L 226.167969 108.484375 "/>
<path style="fill:none;stroke-width:1.2;stroke-linecap:butt;stroke-linejoin:miter;stroke:rgb(0%,0%,0%);stroke-opacity:1;stroke-miterlimit:10;" d="M 207.511719 143.714844 L 204.042969 119.320312 "/>
<path style="fill:none;stroke-width:1.2;stroke-linecap:butt;stroke-linejoin:miter;stroke:rgb(0%,0%,0%);stroke-opacity:1;stroke-miterlimit:10;" d="M 212.902344 140.460938 L 210.128906 120.945312 "/>
<path style="fill:none;stroke-width:1.2;stroke-linecap:butt;stroke-linejoin:miter;stroke:rgb(100%,0%,0%);stroke-opacity:1;stroke-miterlimit:10;" d="M 226.167969 108.484375 L 234.742188 117.332031 "/>
<path style="fill:none;stroke-width:1.2;stroke-linecap:butt;stroke-linejoin:miter;stroke:rgb(0%,0%,100%);stroke-opacity:1;stroke-miterlimit:10;" d="M 234.742188 117.332031 L 243.316406 126.179688 "/>
<path style=" stroke:none;fill-rule:nonzero;fill:rgb(100%,100%,100%);fill-opacity:1;" d="M 222.167969 102.984375 L 230.167969 102.984375 L 230.167969 113.984375 L 222.167969 113.984375 Z M 222.167969 102.984375 "/>
<g style="fill:rgb(100%,0%,0%);fill-opacity:1;">
  <use xlink:href="#glyph0-4" x="222.167969" y="111.647461"/>
</g>
<path style="fill:none;stroke-width:1.2;stroke-linecap:butt;stroke-linejoin:miter;stroke:rgb(0%,0%,100%);stroke-opacity:1;stroke-miterlimit:10;" d="M 243.316406 126.179688 L 237.550781 137.066406 "/>
<path style="fill:none;stroke-width:1.2;stroke-linecap:butt;stroke-linejoin:miter;stroke:rgb(0%,0%,0%);stroke-opacity:1;stroke-miterlimit:10;" d="M 237.550781 137.066406 L 231.785156 147.953125 "/>
<path style="fill:none;stroke-width:1.2;stroke-linecap:butt;stroke-linejoin:miter;stroke:rgb(0%,0%,100%);stroke-opacity:1;stroke-miterlimit:10;" d="M 237.039062 125.644531 L 232.425781 134.351562 "/>
<path style="fill:none;stroke-width:1.2;stroke-linecap:butt;stroke-linejoin:miter;stroke:rgb(0%,0%,0%);stroke-opacity:1;stroke-miterlimit:10;" d="M 232.425781 134.351562 L 227.8125 143.0625 "/>
<path style=" stroke:none;fill-rule:nonzero;fill:rgb(100%,100%,100%);fill-opacity:1;" d="M 240.316406 120.679688 L 247.316406 120.679688 L 247.316406 131.679688 L 240.316406 131.679688 Z M 240.316406 120.679688 "/>
<g style="fill:rgb(0%,0%,100%);fill-opacity:1;">
  <use xlink:href="#glyph0-2" x="240.316406" y="129.342773"/>
</g>
<path style="fill:none;stroke-width:1.2;stroke-linecap:butt;stroke-linejoin:miter;stroke:rgb(0%,0%,0%);stroke-opacity:1;stroke-miterlimit:10;" d="M 231.785156 147.953125 L 207.511719 143.714844 "/>
<path style="fill:none;stroke-width:1.2;stroke-linecap:butt;stroke-linejoin:miter;stroke:rgb(0%,0%,0%);stroke-opacity:1;stroke-miterlimit:10;" d="M 231.785156 147.953125 L 242.621094 170.082031 "/>
<path style="fill:none;stroke-width:1.2;stroke-linecap:butt;stroke-linejoin:miter;stroke:rgb(0%,0%,0%);stroke-opacity:1;stroke-miterlimit:10;" d="M 242.621094 170.082031 L 220.496094 180.917969 "/>
<path style="fill:none;stroke-width:1.2;stroke-linecap:butt;stroke-linejoin:miter;stroke:rgb(0%,0%,0%);stroke-opacity:1;stroke-miterlimit:10;" d="M 242.621094 170.082031 L 264.75 159.242188 "/>
<path style="fill:none;stroke-width:1.2;stroke-linecap:butt;stroke-linejoin:miter;stroke:rgb(0%,0%,0%);stroke-opacity:1;stroke-miterlimit:10;" d="M 242.621094 170.082031 L 253.460938 192.210938 "/>
<path style="fill:none;stroke-width:1.2;stroke-linecap:butt;stroke-linejoin:miter;stroke:rgb(0%,0%,0%);stroke-opacity:1;stroke-miterlimit:10;" d="M 119.644531 147.066406 L 98.773438 160.160156 "/>
<path style="fill:none;stroke-width:1.2;stroke-linecap:butt;stroke-linejoin:miter;stroke:rgb(0%,0%,0%);stroke-opacity:1;stroke-miterlimit:10;" d="M 114.476562 143.464844 L 97.777344 153.9375 "/>
</g>
</svg>

<svg xmlns="http://www.w3.org/2000/svg" xmlns:xlink="http://www.w3.org/1999/xlink" width="300pt" height="300pt" viewBox="0 0 300 300"><defs><symbol overflow="visible"><path d="M.453 1.594v-7.938h4.5v7.938zm.5-.5h3.5v-6.938h-3.5zm0 0"/></symbol><symbol overflow="visible" id="a"><path d="M.89-6.563h3.766v.75h-2.89v1.938h2.61v.734h-2.61V0H.89zm0 0"/></symbol><symbol overflow="visible" id="b"><path d="M.89-6.563H2.08l2.906 5.485v-5.484h.86V0H4.656L1.75-5.484V0H.89zm0 0"/></symbol><symbol overflow="visible" id="c"><path d="M.89-6.563h.876v2.688H5v-2.688h.89V0H5v-3.125H1.766V0H.89zm0 0"/></symbol><symbol overflow="visible" id="d"><path d="M3.547-5.953c-.65 0-1.164.242-1.547.72-.375.48-.563 1.13-.563 1.952 0 .835.188 1.49.563 1.967.383.48.898.72 1.547.72.644 0 1.156-.24 1.53-.72.376-.476.564-1.132.564-1.968 0-.822-.187-1.474-.562-1.954-.375-.477-.887-.72-1.53-.72zm0-.734c.914 0 1.648.312 2.203.937.55.617.828 1.438.828 2.47 0 1.042-.277 1.87-.828 2.483-.555.617-1.29.922-2.203.922-.93 0-1.668-.305-2.22-.922C.774-1.41.5-2.237.5-3.28c0-1.033.273-1.853.828-2.47.55-.625 1.29-.938 2.22-.938zm0 0"/></symbol><symbol overflow="visible"><path d="M.406 1.422V-5.64h4V1.42zM.844.97h3.11v-6.157H.843zm0 0"/></symbol><symbol overflow="visible" id="e"><path d="M.39-2.516H2.5v.64H.39zm0 0"/></symbol></defs><g><path fill="#fff" d="M0 0h300v300H0z"/><path d="M35.25 174.813l10.438-6.547" stroke-width="1.2" stroke="#3cc" stroke-miterlimit="10" fill="none"/><path d="M45.688 168.266l10.437-6.547" stroke-width="1.2" stroke="#000" stroke-miterlimit="10" fill="none"/><path d="M29.25 169.313h6v11h-6zm0 0" fill="#fff"/><use xlink:href="#a" x="29.25" y="177.976" fill="#3cc"/><path d="M56.125 161.72l-6.547-10.44" stroke-width="1.2" stroke="#000" stroke-miterlimit="10" fill="none"/><path d="M49.578 151.28L43.03 140.85" stroke-width="1.2" stroke="#3cc" stroke-miterlimit="10" fill="none"/><path d="M56.125 161.72l6.543 10.436" stroke-width="1.2" stroke="#000" stroke-miterlimit="10" fill="none"/><path d="M62.668 172.156l6.547 10.438" stroke-width="1.2" stroke="#3cc" stroke-miterlimit="10" fill="none"/><path d="M56.125 161.72l20.87-13.09" stroke-width="1.2" stroke="#000" stroke-miterlimit="10" fill="none"/><path d="M37.03 135.348h6v11h-6zm0 0" fill="#fff"/><use xlink:href="#a" x="37.031" y="144.011" fill="#3cc"/><path d="M66.215 177.094h6v11h-6zm0 0" fill="#fff"/><use xlink:href="#a" x="66.215" y="185.757" fill="#3cc"/><path d="M76.996 148.63l-.898-24.626M82.7 145.953l-.72-19.7M98.773 160.16l-21.777-11.53M76.098 124.004l20.87-13.09M96.97 110.914l21.776 11.53M96.434 117.188l17.42 9.226M118.746 122.445l10.434-6.547" stroke-width="1.2" stroke="#000" stroke-miterlimit="10" fill="none"/><path d="M129.18 115.898l10.437-6.546" stroke-width="1.2" stroke="#00f" stroke-miterlimit="10" fill="none"/><path d="M118.746 122.445l.9 24.62" stroke-width="1.2" stroke="#000" stroke-miterlimit="10" fill="none"/><path d="M139.617 109.352l10.887 5.765" stroke-width="1.2" stroke="#00f" stroke-miterlimit="10" fill="none"/><path d="M150.504 115.117l10.89 5.766" stroke-width="1.2" stroke="#000" stroke-miterlimit="10" fill="none"/><path d="M132.617 103.852h14v11h-14zm0 0" fill="#fff"/><g fill="#00f"><use xlink:href="#b" x="132.617" y="112.515"/><use xlink:href="#c" x="139.595" y="112.515"/></g><path d="M158.496 120.988l.45 12.313" stroke-width="1.2" stroke="#000" stroke-miterlimit="10" fill="none"/><path d="M158.945 133.3l.453 12.313" stroke-width="1.2" stroke="#f00" stroke-miterlimit="10" fill="none"/><path d="M164.29 120.777l.452 12.313" stroke-width="1.2" stroke="#000" stroke-miterlimit="10" fill="none"/><path d="M164.742 133.09l.45 12.308" stroke-width="1.2" stroke="#f00" stroke-miterlimit="10" fill="none"/><path d="M161.395 120.883l10.433-6.547" stroke-width="1.2" stroke="#000" stroke-miterlimit="10" fill="none"/><path d="M171.828 114.336l10.438-6.547" stroke-width="1.2" stroke="#00f" stroke-miterlimit="10" fill="none"/><path d="M158.293 140.004h8v11h-8zm0 0" fill="#fff"/><use xlink:href="#d" x="158.293" y="148.667" fill="#f00"/><path d="M182.266 107.79l10.886 5.765" stroke-width="1.2" stroke="#00f" stroke-miterlimit="10" fill="none"/><path d="M193.152 113.555l10.89 5.765" stroke-width="1.2" stroke="#000" stroke-miterlimit="10" fill="none"/><path d="M177.266 100.29h10v15h-10zm0 0" fill="#fff"/><use xlink:href="#b" x="177.266" y="112.391" fill="#00f"/><use xlink:href="#e" x="184.243" y="107.508" fill="#00f"/><path d="M204.043 119.32l11.062-5.418" stroke-width="1.2" stroke="#000" stroke-miterlimit="10" fill="none"/><path d="M215.105 113.902l11.063-5.418" stroke-width="1.2" stroke="#f00" stroke-miterlimit="10" fill="none"/><path d="M207.512 143.715l-3.47-24.395M212.902 140.46l-2.773-19.515" stroke-width="1.2" stroke="#000" stroke-miterlimit="10" fill="none"/><path d="M226.168 108.484l8.574 8.848" stroke-width="1.2" stroke="#f00" stroke-miterlimit="10" fill="none"/><path d="M234.742 117.332l8.574 8.848" stroke-width="1.2" stroke="#00f" stroke-miterlimit="10" fill="none"/><path d="M222.168 102.984h8v11h-8zm0 0" fill="#fff"/><use xlink:href="#d" x="222.168" y="111.647" fill="#f00"/><path d="M243.316 126.18l-5.765 10.886" stroke-width="1.2" stroke="#00f" stroke-miterlimit="10" fill="none"/><path d="M237.55 137.066l-5.765 10.887" stroke-width="1.2" stroke="#000" stroke-miterlimit="10" fill="none"/><path d="M237.04 125.645l-4.614 8.707" stroke-width="1.2" stroke="#00f" stroke-miterlimit="10" fill="none"/><path d="M232.426 134.352l-4.613 8.71" stroke-width="1.2" stroke="#000" stroke-miterlimit="10" fill="none"/><path d="M240.316 120.68h7v11h-7zm0 0" fill="#fff"/><use xlink:href="#b" x="240.316" y="129.343" fill="#00f"/><path d="M231.785 147.953l-24.273-4.238M231.785 147.953l10.836 22.13M242.62 170.082l-22.124 10.836M242.62 170.082l22.13-10.84M242.62 170.082l10.84 22.13M119.645 147.066L98.773 160.16M114.477 143.465l-16.7 10.472" stroke-width="1.2" stroke="#000" stroke-miterlimit="10" fill="none"/></g></svg>
